swiss/communes/0082.svg

<?xml version="1.0" encoding="UTF-8" standalone="no"?>
<!-- Created with Inkscape (http://www.inkscape.org/) -->
<svg
   xmlns:svg="http://www.w3.org/2000/svg"
   xmlns="http://www.w3.org/2000/svg"
   xmlns:xlink="http://www.w3.org/1999/xlink"
   version="1.0"
   width="261.62399"
   height="306.45178"
   id="svg2780">
  <defs
     id="defs2782" />
  <g
     transform="translate(5.7144404,-786.61414)"
     id="layer1">
    <path
       d="M -4.7144404,787.61414 L 0.0059908825,985.86178 C 3.3777192,1127.4673 246.81738,1127.4673 250.18912,985.86178 L 254.90955,787.61414 L -4.7144404,787.61414 z"
       id="path3533"
       style="fill:#fdea39;fill-opacity:1;fill-rule:evenodd;stroke:#000000;stroke-width:2;stroke-linecap:butt;stroke-miterlimit:4;stroke-dashoffset:0;stroke-opacity:1" />
    <path
       d="M 137.01082,180.31958 C 141.73228,163.68081 241.06521,163.19369 214.95006,81.220375 C 210.45191,133.47743 146.07239,100.48022 124.01575,187.02024 L 137.01082,180.31958 z"
       transform="translate(0,804.33069)"
       id="path3702"
       style="fill:#1b7c2b;fill-opacity:1;fill-rule:evenodd;stroke:#151518;stroke-width:1px;stroke-linecap:butt;stroke-linejoin:round;stroke-opacity:1" />
    <path
       d="M 137.01082,180.31958 C 141.40517,164.83356 227.75557,163.33871 218.64469,97.117047 C 211.52369,160.81626 133.3047,144.52636 124.01575,187.02024 L 137.01082,180.31958 z"
       transform="translate(0,804.33069)"
       id="path4213"
       style="fill:#1b7c2b;fill-opacity:1;fill-rule:evenodd;stroke:#151518;stroke-width:1px;stroke-linecap:butt;stroke-linejoin:miter;stroke-opacity:1" />
    <use
       transform="matrix(-1,0,0,1,248.64241,0)"
       id="use4215"
       x="0"
       y="0"
       width="248.03149"
       height="248.03149"
       xlink:href="#path3702" />
    <use
       transform="matrix(-1,0,0,1,248.64241,0)"
       id="use4217"
       x="0"
       y="0"
       width="248.03149"
       height="248.03149"
       xlink:href="#path4213" />
    <path
       d="M 126.07817,181.02491 C 125.4077,83.478673 126.80836,57.483735 144.56253,38.628996 C 175.80905,5.4455431 199.23416,16.114807 206.44328,32.94789 L 202.07774,33.434103 C 189.05715,11.861024 162.86374,23.834794 150.23581,39.429429 C 167.13946,32.659875 179.19348,35.58958 181.0941,58.826071 L 176.15677,58.297071 C 179.47974,33.87813 136.0377,31.365587 133.30783,80.691376 C 142.46702,71.823474 152.61979,72.761454 157.1128,86.863035 L 153.76247,86.334035 C 151.25581,78.479261 135.2736,74.485527 133.27597,94.013578 C 131.00361,116.02681 132.95845,160.32821 131.89716,180.84858 L 126.07817,181.02491 z"
       transform="translate(0,804.33069)"
       id="path4219"
       style="opacity:1;fill:#1b7c2b;fill-opacity:1;fill-rule:evenodd;stroke:#151518;stroke-width:1px;stroke-linecap:butt;stroke-linejoin:round;marker:none;marker-start:none;marker-mid:none;marker-end:none;stroke-miterlimit:4;stroke-dasharray:none;stroke-dashoffset:0;stroke-opacity:1;visibility:visible;display:inline;overflow:visible;enable-background:accumulate" />
    <use
       transform="matrix(-1,0,0,1,248.60481,0)"
       id="use4221"
       x="0"
       y="0"
       width="248.03149"
       height="248.03149"
       xlink:href="#path4219" />
    <path
       d="M 138.95049,109.78634 C 142.85446,111.28666 135.49436,82.770169 153.53449,83.534098 C 171.45015,84.292757 161.60343,105.67578 167.34012,110.668 C 162.13179,112.046 160.90069,109.44676 158.45133,108.0658 C 157.91469,111.04875 157.00691,114.07859 154.30518,115.75239 C 152.98338,115.85892 149.50456,110.84393 148.82514,107.84667 C 143.67395,111.78519 141.73228,111.07944 138.95049,109.78634 z"
       transform="translate(0,804.33069)"
       id="path4223"
       style="opacity:1;fill:#ffffff;fill-opacity:1;fill-rule:evenodd;stroke:#151518;stroke-width:1px;stroke-linecap:butt;stroke-linejoin:round;marker:none;marker-start:none;marker-mid:none;marker-end:none;stroke-miterlimit:4;stroke-dasharray:none;stroke-dashoffset:0;stroke-opacity:1;visibility:visible;display:inline;overflow:visible;enable-background:accumulate" />
    <path
       d="M 164.68752,886.62198 C 170.53116,884.68381 161.98073,858.02477 179.09519,859.57623 C 196.21735,861.12839 186.9878,881.36526 192.72449,886.35748 C 187.51616,887.73548 186.63772,885.31257 184.18836,883.93161 C 183.65172,886.91456 182.47944,890.03257 179.77771,891.70637 C 178.45591,891.8129 174.71259,887.06241 174.03317,884.06515 C 168.88198,888.00367 167.80274,887.29792 164.68752,886.62198 z"
       id="path4251"
       style="opacity:1;fill:#ffffff;fill-opacity:1;fill-rule:evenodd;stroke:#151518;stroke-width:1px;stroke-linecap:butt;stroke-linejoin:round;marker:none;marker-start:none;marker-mid:none;marker-end:none;stroke-miterlimit:4;stroke-dasharray:none;stroke-dashoffset:0;stroke-opacity:1;visibility:visible;display:inline;overflow:visible;enable-background:accumulate" />
    <path
       d="M 190.57063,860.37722 C 196.3261,860.37871 187.41549,833.18594 204.89013,834.03681 C 222.18476,834.87892 213.22357,856.26666 218.96026,861.25888 C 213.75193,862.63688 212.52083,860.03764 210.07147,858.65668 C 209.53483,861.63963 208.62705,864.66947 205.92532,866.34327 C 204.39743,866.40858 200.2452,861.25891 200.44528,858.43755 C 195.29409,862.37607 192.89235,861.93482 190.57063,860.37722 z"
       id="path4253"
       style="opacity:1;fill:#ffffff;fill-opacity:1;fill-rule:evenodd;stroke:#151518;stroke-width:1px;stroke-linecap:butt;stroke-linejoin:round;marker:none;marker-start:none;marker-mid:none;marker-end:none;stroke-miterlimit:4;stroke-dasharray:none;stroke-dashoffset:0;stroke-opacity:1;visibility:visible;display:inline;overflow:visible;enable-background:accumulate" />
    <path
       d="M 80.965078,914.58811 C 87.337711,912.7381 78.073048,886.61843 95.460911,887.71871 C 113.0244,888.8301 103.61802,909.50772 109.35471,914.49994 C 104.14638,915.87794 102.29811,913.2787 99.848752,911.89774 C 99.312112,914.88069 97.699,918.17503 94.99727,919.84883 C 93.658002,920.06016 90.71065,915.82386 90.222562,911.67861 C 85.071372,915.61713 83.727629,916.05755 80.965078,914.58811 z"
       id="path4255"
       style="opacity:1;fill:#ffffff;fill-opacity:1;fill-rule:evenodd;stroke:#151518;stroke-width:1px;stroke-linecap:butt;stroke-linejoin:round;marker:none;marker-start:none;marker-mid:none;marker-end:none;stroke-miterlimit:4;stroke-dasharray:none;stroke-dashoffset:0;stroke-opacity:1;visibility:visible;display:inline;overflow:visible;enable-background:accumulate" />
    <path
       d="M 56.262058,886.35748 C 60.166028,887.8578 53.639962,858.90595 70.317057,859.75257 C 86.998386,860.59939 78.385998,881.45342 84.122688,886.44564 C 78.914358,887.82364 77.242425,885.66524 74.793065,884.28428 C 74.168259,887.79623 71.320814,890.2089 69.148084,892.23537 C 66.680119,890.93123 65.493629,887.06241 64.814209,884.06515 C 59.663019,888.00367 58.848275,887.03342 56.262058,886.35748 z"
       id="path4257"
       style="opacity:1;fill:#ffffff;fill-opacity:1;fill-rule:evenodd;stroke:#151518;stroke-width:1px;stroke-linecap:butt;stroke-linejoin:round;marker:none;marker-start:none;marker-mid:none;marker-end:none;stroke-miterlimit:4;stroke-dasharray:none;stroke-dashoffset:0;stroke-opacity:1;visibility:visible;display:inline;overflow:visible;enable-background:accumulate" />
    <path
       d="M 30.050267,861.33192 C 35.012236,857.98308 27.255591,832.47957 44.546101,834.28618 C 61.932761,836.10284 51.909708,856.16336 57.646398,861.15558 C 52.438068,862.53358 51.295135,859.75801 48.845775,858.37705 C 48.309135,861.36 45.638024,864.47801 43.200793,866.85714 C 40.820995,865.11217 39.281839,861.68418 38.602419,858.68692 C 35.919892,861.92011 32.371986,861.9197 30.050267,861.33192 z"
       id="path4249"
       style="opacity:1;fill:#ffffff;fill-opacity:1;fill-rule:evenodd;stroke:#151518;stroke-width:1px;stroke-linecap:butt;stroke-linejoin:round;marker:none;marker-start:none;marker-mid:none;marker-end:none;stroke-miterlimit:4;stroke-dasharray:none;stroke-dashoffset:0;stroke-opacity:1;visibility:visible;display:inline;overflow:visible;enable-background:accumulate" />
    <g
       transform="translate(0.3336817,0)"
       id="g4525">
      <path
         d="M 124.76387,1035.4244 C 145.90437,1005.3547 171.32224,980.30312 187.85079,992.52198 C 204.86702,1005.1013 206.95742,1028.9093 124.76387,1082.536 C 42.570325,1028.9093 44.66073,1005.1013 61.676952,992.52195 C 78.205509,980.30309 103.62337,1005.3547 124.76387,1035.4244 z"
         id="rect4270"
         style="opacity:1;fill:#151518;fill-opacity:1;fill-rule:evenodd;stroke:none;stroke-width:1.00000012px;stroke-linecap:butt;stroke-linejoin:miter;marker:none;marker-start:none;marker-mid:none;marker-end:none;stroke-miterlimit:4;stroke-dasharray:none;stroke-dashoffset:0;stroke-opacity:1;visibility:visible;display:inline;overflow:visible;enable-background:accumulate" />
      <path
         d="M 124.71195,1082.0375 C 99.082128,1045.6291 79.98022,979.79198 124.71195,979.29599 C 169.69302,978.79724 150.34178,1045.6291 124.71195,1082.0375 z"
         id="path5641"
         style="opacity:1;fill:#151518;fill-opacity:1;fill-rule:evenodd;stroke:none;stroke-width:0.99921262;stroke-linecap:butt;stroke-linejoin:miter;marker:none;marker-start:none;marker-mid:none;marker-end:none;stroke-miterlimit:4;stroke-dasharray:none;stroke-dashoffset:0;stroke-opacity:1;visibility:visible;display:inline;overflow:visible;enable-background:accumulate" />
      <path
         d="M 105.5389,985.06228 C 86.528051,1002.1621 103.79322,1052.3214 124.71195,1082.0375 C 145.63068,1052.3214 162.89585,1002.1621 143.885,985.06228"
         id="path4259"
         style="opacity:1;fill:none;fill-opacity:1;fill-rule:evenodd;stroke:#fdea39;stroke-width:0.99921262;stroke-linecap:butt;stroke-linejoin:miter;marker:none;marker-start:none;marker-mid:none;marker-end:none;stroke-miterlimit:4;stroke-dasharray:none;stroke-dashoffset:0;stroke-opacity:1;visibility:visible;display:inline;overflow:visible;enable-background:accumulate" />
    </g>
  </g>
</svg>

<svg xmlns="http://www.w3.org/2000/svg" xmlns:xlink="http://www.w3.org/1999/xlink" version="1.0" width="261.624" height="306.452"><g transform="translate(5.714 -786.614)"><path d="m-4.714 787.614 4.72 198.248c3.372 141.605 246.811 141.605 250.183 0l4.72-198.248H-4.713z" style="fill:#fdea39;fill-opacity:1;fill-rule:evenodd;stroke:#000;stroke-width:2;stroke-linecap:butt;stroke-miterlimit:4;stroke-dashoffset:0;stroke-opacity:1"/><path d="M137.01 180.32c4.722-16.64 104.055-17.126 77.94-99.1-4.498 52.257-68.878 19.26-90.934 105.8l12.995-6.7z" transform="translate(0 804.33)" id="a" style="fill:#1b7c2b;fill-opacity:1;fill-rule:evenodd;stroke:#151518;stroke-width:1px;stroke-linecap:butt;stroke-linejoin:round;stroke-opacity:1"/><path d="M137.01 180.32c4.395-15.486 90.746-16.981 81.635-83.203-7.121 63.7-85.34 47.41-94.63 89.903l12.996-6.7z" transform="translate(0 804.33)" id="b" style="fill:#1b7c2b;fill-opacity:1;fill-rule:evenodd;stroke:#151518;stroke-width:1px;stroke-linecap:butt;stroke-linejoin:miter;stroke-opacity:1"/><use transform="matrix(-1 0 0 1 248.642 0)" width="248.031" height="248.031" xlink:href="#a"/><use transform="matrix(-1 0 0 1 248.642 0)" width="248.031" height="248.031" xlink:href="#b"/><path d="M126.078 181.025c-.67-97.546.73-123.541 18.485-142.396 31.246-33.183 54.671-22.514 61.88-5.681l-4.365.486c-13.02-21.573-39.214-9.6-51.842 5.995 16.903-6.77 28.957-3.84 30.858 19.397l-4.937-.529c3.323-24.419-40.12-26.931-42.85 22.394 9.16-8.868 19.313-7.93 23.806 6.172l-3.35-.529c-2.507-7.855-18.49-11.848-20.487 7.68-2.272 22.013-.318 66.314-1.379 86.835l-5.819.176z" transform="translate(0 804.33)" id="c" style="opacity:1;fill:#1b7c2b;fill-opacity:1;fill-rule:evenodd;stroke:#151518;stroke-width:1px;stroke-linecap:butt;stroke-linejoin:round;marker:none;marker-start:none;marker-mid:none;marker-end:none;stroke-miterlimit:4;stroke-dasharray:none;stroke-dashoffset:0;stroke-opacity:1;visibility:visible;display:inline;overflow:visible;enable-background:accumulate"/><use transform="matrix(-1 0 0 1 248.605 0)" width="248.031" height="248.031" xlink:href="#c"/><path d="M138.95 109.786c3.904 1.5-3.456-27.016 14.584-26.252 17.916.759 8.07 22.142 13.806 27.134-5.208 1.378-6.44-1.221-8.889-2.602-.536 2.983-1.444 6.013-4.146 7.686-1.322.107-4.8-4.908-5.48-7.905-5.151 3.938-7.093 3.232-9.875 1.94z" transform="translate(0 804.33)" style="opacity:1;fill:#fff;fill-opacity:1;fill-rule:evenodd;stroke:#151518;stroke-width:1px;stroke-linecap:butt;stroke-linejoin:round;marker:none;marker-start:none;marker-mid:none;marker-end:none;stroke-miterlimit:4;stroke-dasharray:none;stroke-dashoffset:0;stroke-opacity:1;visibility:visible;display:inline;overflow:visible;enable-background:accumulate"/><path d="M164.688 886.622c5.843-1.938-2.707-28.597 14.407-27.046 17.122 1.552 7.893 21.79 13.63 26.781-5.209 1.378-6.087-1.044-8.537-2.425-.536 2.983-1.709 6.1-4.41 7.774-1.322.107-5.065-4.644-5.745-7.64-5.151 3.938-6.23 3.232-9.345 2.556z" style="opacity:1;fill:#fff;fill-opacity:1;fill-rule:evenodd;stroke:#151518;stroke-width:1px;stroke-linecap:butt;stroke-linejoin:round;marker:none;marker-start:none;marker-mid:none;marker-end:none;stroke-miterlimit:4;stroke-dasharray:none;stroke-dashoffset:0;stroke-opacity:1;visibility:visible;display:inline;overflow:visible;enable-background:accumulate"/><path d="M190.57 860.377c5.756.002-3.155-27.191 14.32-26.34 17.295.842 8.334 22.23 14.07 27.222-5.208 1.378-6.44-1.221-8.889-2.602-.536 2.983-1.444 6.012-4.146 7.686-1.528.066-5.68-5.084-5.48-7.905-5.15 3.938-7.553 3.497-9.874 1.94z" style="opacity:1;fill:#fff;fill-opacity:1;fill-rule:evenodd;stroke:#151518;stroke-width:1px;stroke-linecap:butt;stroke-linejoin:round;marker:none;marker-start:none;marker-mid:none;marker-end:none;stroke-miterlimit:4;stroke-dasharray:none;stroke-dashoffset:0;stroke-opacity:1;visibility:visible;display:inline;overflow:visible;enable-background:accumulate"/><path d="M80.965 914.588c6.373-1.85-2.892-27.97 14.496-26.87 17.563 1.112 8.157 21.79 13.894 26.782-5.209 1.378-7.057-1.221-9.506-2.602-.537 2.983-2.15 6.277-4.852 7.95-1.339.212-4.286-4.024-4.774-8.17-5.152 3.94-6.495 4.38-9.258 2.91z" style="opacity:1;fill:#fff;fill-opacity:1;fill-rule:evenodd;stroke:#151518;stroke-width:1px;stroke-linecap:butt;stroke-linejoin:round;marker:none;marker-start:none;marker-mid:none;marker-end:none;stroke-miterlimit:4;stroke-dasharray:none;stroke-dashoffset:0;stroke-opacity:1;visibility:visible;display:inline;overflow:visible;enable-background:accumulate"/><path d="M56.262 886.357c3.904 1.5-2.622-27.451 14.055-26.604 16.681.846 8.069 21.7 13.806 26.693-5.209 1.378-6.88-.78-9.33-2.162-.625 3.512-3.472 5.925-5.645 7.951-2.468-1.304-3.654-5.173-4.334-8.17-5.151 3.939-5.966 2.968-8.552 2.292z" style="opacity:1;fill:#fff;fill-opacity:1;fill-rule:evenodd;stroke:#151518;stroke-width:1px;stroke-linecap:butt;stroke-linejoin:round;marker:none;marker-start:none;marker-mid:none;marker-end:none;stroke-miterlimit:4;stroke-dasharray:none;stroke-dashoffset:0;stroke-opacity:1;visibility:visible;display:inline;overflow:visible;enable-background:accumulate"/><path d="M30.05 861.332c4.962-3.349-2.794-28.852 14.496-27.046 17.387 1.817 7.364 21.877 13.1 26.87-5.208 1.378-6.35-1.398-8.8-2.779-.537 2.983-3.208 6.101-5.645 8.48-2.38-1.745-3.92-5.173-4.599-8.17-2.682 3.233-6.23 3.233-8.552 2.645z" style="opacity:1;fill:#fff;fill-opacity:1;fill-rule:evenodd;stroke:#151518;stroke-width:1px;stroke-linecap:butt;stroke-linejoin:round;marker:none;marker-start:none;marker-mid:none;marker-end:none;stroke-miterlimit:4;stroke-dasharray:none;stroke-dashoffset:0;stroke-opacity:1;visibility:visible;display:inline;overflow:visible;enable-background:accumulate"/><path d="M124.764 1035.424c21.14-30.07 46.558-55.12 63.087-42.902 17.016 12.58 19.106 36.387-63.087 90.014-82.194-53.627-80.103-77.435-63.087-90.014 16.529-12.219 41.946 12.833 63.087 42.902z" style="opacity:1;fill:#151518;fill-opacity:1;fill-rule:evenodd;stroke:none;stroke-width:1.00000012px;stroke-linecap:butt;stroke-linejoin:miter;marker:none;marker-start:none;marker-mid:none;marker-end:none;stroke-miterlimit:4;stroke-dasharray:none;stroke-dashoffset:0;stroke-opacity:1;visibility:visible;display:inline;overflow:visible;enable-background:accumulate" transform="translate(.334)"/><path d="M124.712 1082.037c-25.63-36.408-44.732-102.245 0-102.741 44.981-.499 25.63 66.333 0 102.741z" style="opacity:1;fill:#151518;fill-opacity:1;fill-rule:evenodd;stroke:none;stroke-width:.99921262;stroke-linecap:butt;stroke-linejoin:miter;marker:none;marker-start:none;marker-mid:none;marker-end:none;stroke-miterlimit:4;stroke-dasharray:none;stroke-dashoffset:0;stroke-opacity:1;visibility:visible;display:inline;overflow:visible;enable-background:accumulate" transform="translate(.334)"/><path d="M105.539 985.062c-19.01 17.1-1.746 67.26 19.173 96.975 20.919-29.716 38.184-79.875 19.173-96.975" style="opacity:1;fill:none;fill-opacity:1;fill-rule:evenodd;stroke:#fdea39;stroke-width:.99921262;stroke-linecap:butt;stroke-linejoin:miter;marker:none;marker-start:none;marker-mid:none;marker-end:none;stroke-miterlimit:4;stroke-dasharray:none;stroke-dashoffset:0;stroke-opacity:1;visibility:visible;display:inline;overflow:visible;enable-background:accumulate" transform="translate(.334)"/></g></svg>
